X:459
T:Royal Burlesque Hornpipe
M:4/4
K:G
L:1/8
D2 | G>FG>B A>GF>A | G>AB>c d2 B>d |
c>BA>c B>AG>B | A>GF>A F2 D2 |
G>FG>B A>GF>A | G>AB>c d2 B>d |
c>BA>G F>DE>F | G2 g2 g2 :||
g>f | e>cc>c G>cc>c | d>BB>B G>BB>B |
c>AA>A D>FA>F | G>AB>c d>gf>g |
e>cc>c G>cc>c | d>BB>B G>BB>B |
c>BA>G F>DE>F | G2 g2 g2 :||
